icon/ir/vegan-squared.svg

<svg viewBox="0 0 24 24" stroke-width="1.5" fill="none" xmlns="http://www.w3.org/2000/svg" height="1em" width="1em">
  <path d="M21 3.6V20.4C21 20.7314 20.7314 21 20.4 21H3.6C3.26863 21 3 20.7314 3 20.4V3.6C3 3.26863 3.26863 3 3.6 3H20.4C20.7314 3 21 3.26863 21 3.6Z" stroke="currentColor" stroke-linecap="round" stroke-linejoin="round"/>
  <path d="M14.5 10.5C12.75 12.3824 11 17 11 17C11 17 8.5 10.5 6 9" stroke="currentColor" stroke-linecap="round" stroke-linejoin="round"/>
  <path d="M18.0155 6.73006L18.3121 9.81003C18.5045 11.8081 17.0064 13.5871 15.0083 13.7795C13.0478 13.9683 11.2718 12.5352 11.083 10.5747C10.8942 8.61421 12.3305 6.87187 14.291 6.68309L17.5749 6.36689C17.7969 6.34552 17.9941 6.50812 18.0155 6.73006Z" stroke="currentColor" stroke-linecap="round" stroke-linejoin="round"/>
</svg>

<svg width="24" height="24" stroke-width="1.5" fill="none" xmlns="http://www.w3.org/2000/svg"><path d="M21 3.6v16.8a.6.6 0 0 1-.6.6H3.6a.6.6 0 0 1-.6-.6V3.6a.6.6 0 0 1 .6-.6h16.8a.6.6 0 0 1 .6.6Z" stroke="currentColor" stroke-linecap="round" stroke-linejoin="round"/><path d="M14.5 10.5C12.75 12.382 11 17 11 17s-2.5-6.5-5-8" stroke="currentColor" stroke-linecap="round" stroke-linejoin="round"/><path d="m18.015 6.73.297 3.08c.192 1.998-1.306 3.777-3.304 3.97-1.96.188-3.736-1.245-3.925-3.205a3.566 3.566 0 0 1 3.208-3.892l3.284-.316a.404.404 0 0 1 .44.363Z" stroke="currentColor" stroke-linecap="round" stroke-linejoin="round"/></svg>
